X: 51
T:Christmas Eve
M:C|
R:reel
K:G
~D3E G3A|B2dB ABGB|ABGE ~D3E|G2BG ABGE|
~D3E G3A|B2dB ABGB|ABGE G2BG|1 ABGE ~G3E:|2 ABGE ~G3A||
|:BA (3B^cd edeg|a2ge g2eg|a2ge ~g3e|dedB A2GA|
BA (3B^cd edeg|a2ge g2eg|a2ge ~d2BG|ABGE ~G3A:|
|:BG~G2 BGBd|eg~g2 egdc|BG~G2 dGBG|EA~A2 EA~A2|
BG~G2 BGBd|eggf ~g3a|bg~g2 edBG|1 ABGE ~G3A:|2 ABGE ~G3E||

